X:SSF 14-18 12
T:
M:4/4
K:G
P:A
a2AA ABAF EFAB c2Bc |1,3 d2BB BcBA Bcde fefg :|2,4 dcde fgaf ecB2 A2 :| AB ||
P:B
c2ec fcec c2ec fedc |1,3 d2fd gdfd d2fd gfed :|2,4 Bcde fgaf ecB2 A2 :|

% Into...

